X: 29
T: Miss Smollet's Favorite
S: Fitzmaurice Collection
N: 132192
Z: BB
L: 1/8
M: 6/8
R: jig
Q: 1/4=180
K: D
A2D DED | A2G AB=c | A2D DED | AGE ED=C |
A2D DED | A2G AB=c | GEG =cBA | AGE ED=C :|
=fed edc | d2A AGE | A2D DED | AGE ED=C |
=fed edc | d2A AGE | GAB =cBA | AGE ED=C :|
ABA dBG | ABA =cGE | ABA dBG | =cGE ED=C |
ABA dBG | ABA =cGE | GAB =cBA | AGE ED=C :|
E/F/GE F2D | E=CE EFG | A2D DED | AGE ED=C |
E/F/GE FDF | E=CE EFG | GAG =cBA | AGE ED=C :|
%%%%%
